X:1
T:BWV253 Soprano
C:Music21
L:1/4
M:4/4
K:A
V:1 name="Melody" clef=treble
%%MIDI program 1 40
 c/d/ e c A | B c d c | B A A3/2 B/ | c c B/A/ B | A3  c | B c A F | B A B c | A A A3/2 B/ | c c B/A/ B | A3 |] 
V:2 name="Chords" clef=treble
%%MIDI program 2 0
[A,EA] [A,EA] [A,EA] [CEA] | [EGB] [EAc] [FAd] [EAc] | [DFA] [CEA] [CEA]3/2 [EGB]/ | [EAc] [FAd] [EGB] [EGB] | [CEA]3 [EAc] | [EGB] [EAc] [CEA] [A,CF] | [EGB] [CEA] [EGB] [EAc] | [CEA] [DFA] [CEA]3/2 [EGB]/ | [EAc] [FAd] [EGB] [EGB] | [CEA]3 |]

--- Metrics ---
  doubled_leading_tone       0
  unresolved_leading_tone    2
  parallel_fifth_octave      2
  ctnctr                     0.342
  pcs                        0.371
  mctd                       1.184
  cadence_score              0.800
  diatonic_coverage          1.000
  bigram_typicality          0.818

================================================================================
FINAL ABC
================================================================================

